X: 37653
T: Snow Shoer's
R: reel
M: 4/4
K: Gminor
|:D2|G^FGA BABc|d^cde d=cBG|F=EFG AGAB|c=Bcd cAGF|
G^FGA BABc|d^cde d=cBc|d3e dcBA|B2 A2 G2:|

